MIBoilerplate/src/assets/svgIcons/setting.svg

<svg width="24" height="24" viewBox="0 0 24 24" fill="none" xmlns="http://www.w3.org/2000/svg">
<g id="Setting">
<path id="Setting_2" fill-rule="evenodd" clip-rule="evenodd" d="M20.4022 13.58C20.7599 13.77 21.0359 14.07 21.23 14.37C21.6081 14.99 21.5775 15.75 21.2096 16.42L20.4942 17.62C20.1161 18.26 19.4109 18.66 18.6854 18.66C18.3277 18.66 17.9291 18.56 17.6021 18.36C17.3364 18.19 17.0298 18.13 16.7028 18.13C15.691 18.13 14.8428 18.96 14.8121 19.95C14.8121 21.1 13.8719 22 12.6967 22H11.3068C10.1213 22 9.18115 21.1 9.18115 19.95C9.16071 18.96 8.31248 18.13 7.30075 18.13C6.9635 18.13 6.65691 18.19 6.40142 18.36C6.0744 18.56 5.66561 18.66 5.31815 18.66C4.58234 18.66 3.87719 18.26 3.49906 17.62L2.79391 16.42C2.41579 15.77 2.39535 14.99 2.77347 14.37C2.93699 14.07 3.24357 13.77 3.59104 13.58C3.87719 13.44 4.06114 13.21 4.23487 12.94C4.74585 12.08 4.43926 10.95 3.5706 10.44C2.55886 9.87 2.23184 8.6 2.81435 7.61L3.49906 6.43C4.0918 5.44 5.35903 5.09 6.38098 5.67C7.27009 6.15 8.4249 5.83 8.9461 4.98C9.10961 4.7 9.20159 4.4 9.18115 4.1C9.16071 3.71 9.27312 3.34 9.46729 3.04C9.84542 2.42 10.5301 2.02 11.2762 2H12.7171C13.4734 2 14.1581 2.42 14.5362 3.04C14.7202 3.34 14.8428 3.71 14.8121 4.1C14.7917 4.4 14.8837 4.7 15.0472 4.98C15.5684 5.83 16.7232 6.15 17.6225 5.67C18.6343 5.09 19.9117 5.44 20.4942 6.43L21.1789 7.61C21.7717 8.6 21.4446 9.87 20.4227 10.44C19.554 10.95 19.2474 12.08 19.7686 12.94C19.9321 13.21 20.1161 13.44 20.4022 13.58ZM9.10961 12.01C9.10961 13.58 10.4075 14.83 12.012 14.83C13.6164 14.83 14.8837 13.58 14.8837 12.01C14.8837 10.44 13.6164 9.18 12.012 9.18C10.4075 9.18 9.10961 10.44 9.10961 12.01Z" fill="white"/>
</g>
</svg>

<svg width="24" height="24" viewBox="0 0 24 24" fill="none">
    <path fill-rule="evenodd" clip-rule="evenodd" d="M20.402 13.58c.358.19.634.49.828.79.378.62.348 1.38-.02 2.05l-.716 1.2a2.13 2.13 0 0 1-1.809 1.04c-.357 0-.756-.1-1.083-.3-.266-.17-.572-.23-.9-.23-1.011 0-1.86.83-1.89 1.82 0 1.15-.94 2.05-2.115 2.05h-1.39c-1.186 0-2.126-.9-2.126-2.05-.02-.99-.869-1.82-1.88-1.82-.338 0-.644.06-.9.23-.327.2-.735.3-1.083.3-.736 0-1.44-.4-1.819-1.04l-.705-1.2c-.378-.65-.399-1.43-.02-2.05.163-.3.47-.6.817-.79.286-.14.47-.37.644-.64.51-.86.204-1.99-.664-2.5a2.044 2.044 0 0 1-.757-2.83L3.5 6.43a2.124 2.124 0 0 1 2.882-.76c.89.48 2.044.16 2.565-.69.164-.28.256-.58.235-.88-.02-.39.092-.76.286-1.06A2.195 2.195 0 0 1 11.277 2h1.44c.756 0 1.441.42 1.82 1.04.183.3.306.67.275 1.06-.02.3.072.6.235.88.521.85 1.676 1.17 2.575.69a2.112 2.112 0 0 1 2.872.76l.685 1.18c.593.99.266 2.26-.756 2.83-.869.51-1.176 1.64-.654 2.5.163.27.347.5.633.64ZM9.11 12.01c0 1.57 1.298 2.82 2.902 2.82s2.872-1.25 2.872-2.82c0-1.57-1.268-2.83-2.872-2.83-1.604 0-2.902 1.26-2.902 2.83Z" fill="#fff"/>
</svg>
